website/static/img/icons/klipfolio.svg

<svg viewBox="0 0 35 35" xmlns="http://www.w3.org/2000/svg"><g transform="translate(-13.5 -13.5)"><path d="m13.5 21a.84.84 0 0 1 .85-.83h4.65a.84.84 0 0 1 .85.83v10.18c0 .46.19.51.43.11l6.19-10.42a1.64 1.64 0 0 1 1.28-.72h4.7c.47 0 .63.31.37.69l-6.3 9a1.66 1.66 0 0 0 -.14 1.45l7.19 16.39a.51.51 0 0 1 -.51.76h-4.88a1.33 1.33 0 0 1 -1.18-.72l-4.45-11.51c-.17-.43-.52-.47-.78-.09l-1.45 2.06a3.12 3.12 0 0 0 -.48 1.52v8a.84.84 0 0 1 -.85.83h-4.64a.84.84 0 0 1 -.85-.83z"/><path d="m46.88 26.59a1 1 0 0 0 1.62-.59v-11.32a1.18 1.18 0 0 0 -1.18-1.18h-11.32a1 1 0 0 0 -.64 1.57z" fill="#ed1c24"/></g></svg>

<?xml version="1.0" encoding="utf-8"?>
<svg xmlns="http://www.w3.org/2000/svg" data-name="Layer 1" id="Layer_1" viewBox="0 0 35 35">
  <defs>
    <style>.cls-1{fill:#ed1c24;}</style>
  </defs>
  <title>klipfolio-badge</title>
  <path d="M13.5,21a.84.84,0,0,1,.85-.83H19a.84.84,0,0,1,.85.83V31.18c0,.46.19.51.43.11l6.19-10.42a1.64,1.64,0,0,1,1.28-.72h4.7c.47,0,.63.31.37.69l-6.3,9a1.66,1.66,0,0,0-.14,1.45l7.19,16.39a.51.51,0,0,1-.51.76H28.18A1.33,1.33,0,0,1,27,47.72L22.55,36.21c-.17-.43-.52-.47-.78-.09l-1.45,2.06a3.12,3.12,0,0,0-.48,1.52v8a.84.84,0,0,1-.85.83H14.35a.84.84,0,0,1-.85-.83Z" transform="translate(-13.5 -13.5)"/>
  <path class="cls-1" d="M46.88,26.59A1,1,0,0,0,48.5,26V14.68a1.18,1.18,0,0,0-1.18-1.18H36a1,1,0,0,0-.64,1.57Z" transform="translate(-13.5 -13.5)"/>
</svg>
